_includes/icons/ios-down-arrow.svg

<svg fill="#666" height="50" viewBox="0 0 50 50" width="50" xmlns="http://www.w3.org/2000/svg"><path d="m24.90625 7.96875c-.042969.007813-.085937.019531-.125.03125-.464844.105469-.792969.523438-.78125 1v29.53125l-9.1875-9.1875c-.1875-.199219-.445312-.308594-.71875-.3125-.40625.003906-.769531.25-.921875.628906-.148437.375-.058594.808594.234375 1.089844l10.875 10.90625.71875.6875.71875-.6875 10.875-10.90625c.296875-.242187.433594-.628906.347656-1.003906-.085937-.371094-.378906-.664063-.75-.75-.375-.085938-.761718.050781-1.003906.347656l-9.1875 9.1875v-29.53125c.011719-.289062-.105469-.566406-.3125-.761719-.210937-.199218-.496094-.296875-.78125-.269531z"/></svg>

<svg xmlns="http://www.w3.org/2000/svg" viewBox="0 0 50 50" width="50" height="50" fill="#666"><path d="M 24.90625 7.96875 C 24.863281 7.976563 24.820313 7.988281 24.78125 8 C 24.316406 8.105469 23.988281 8.523438 24 9 L 24 38.53125 L 14.8125 29.34375 C 14.625 29.144531 14.367188 29.035156 14.09375 29.03125 C 13.6875 29.035156 13.324219 29.28125 13.171875 29.660156 C 13.023438 30.035156 13.113281 30.46875 13.40625 30.75 L 24.28125 41.65625 L 25 42.34375 L 25.71875 41.65625 L 36.59375 30.75 C 36.890625 30.507813 37.027344 30.121094 36.941406 29.746094 C 36.855469 29.375 36.5625 29.082031 36.191406 28.996094 C 35.816406 28.910156 35.429688 29.046875 35.1875 29.34375 L 26 38.53125 L 26 9 C 26.011719 8.710938 25.894531 8.433594 25.6875 8.238281 C 25.476563 8.039063 25.191406 7.941406 24.90625 7.96875 Z"/></svg>
